overrides/.icons/devices/connected-tv.svg

<?xml version="1.0" encoding="UTF-8" standalone="no"?>
<svg
   height="24px"
   viewBox="0 -960 960 960"
   width="24px"
   fill="currentColor"
   version="1.1"
   id="svg1"
   sodipodi:docname="connected-tv.svg"
   inkscape:version="1.4.3 (0d15f75042, 2025-12-25)"
   xmlns:inkscape="http://www.inkscape.org/namespaces/inkscape"
   xmlns:sodipodi="http://sodipodi.sourceforge.net/DTD/sodipodi-0.dtd"
   xmlns="http://www.w3.org/2000/svg"
   xmlns:svg="http://www.w3.org/2000/svg">
  <defs
     id="defs1" />
  <sodipodi:namedview
     id="namedview1"
     pagecolor="#505050"
     bordercolor="#ffffff"
     borderopacity="1"
     inkscape:showpageshadow="0"
     inkscape:pageopacity="0"
     inkscape:pagecheckerboard="1"
     inkscape:deskcolor="#505050"
     inkscape:zoom="48.333333"
     inkscape:cx="11.989655"
     inkscape:cy="9.5172414"
     inkscape:window-width="2560"
     inkscape:window-height="1368"
     inkscape:window-x="0"
     inkscape:window-y="0"
     inkscape:window-maximized="1"
     inkscape:current-layer="svg1" />
  <path
     d="m 149.7931,-291.31034 h 94.34483 q 0,-38.91724 -27.71379,-66.63104 -27.71379,-27.71379 -66.63104,-27.71379 z m 167.46208,0 h 68.39999 q 0,-97.88276 -68.98965,-166.87241 -68.98966,-68.98966 -166.87242,-68.98966 v 68.4 q 69.57931,0 118.52069,48.94138 48.94139,48.94137 48.94139,118.52069 z m 141.51724,0 h 68.39999 q 0,-77.83448 -29.48276,-146.82414 -29.48275,-68.98965 -80.78275,-120.28965 -51.3,-51.3 -120.28966,-80.78276 -68.98965,-29.48277 -146.82414,-29.48277 v 68.40001 q 128.54483,0 218.76208,90.21724 90.21724,90.21724 90.21724,218.76207 z M 291.31035,-55.448276 V -149.79311 H 102.62069 q -38.917243,0 -66.631036,-27.71378 Q 8.2758608,-205.22068 8.2758608,-244.13793 V -810.2069 q 0,-38.91723 27.7137932,-66.63103 27.713793,-27.71379 66.631036,-27.71379 h 754.75862 q 38.91724,0 66.63103,27.71379 27.7138,27.7138 27.7138,66.63103 v 566.06897 q 0,38.91725 -27.7138,66.63104 -27.71379,27.71378 -66.63103,27.71378 H 668.68965 v 94.344834 z M 102.62069,-244.13793 H 857.37931 V -810.2069 H 102.62069 Z m 0,0 V -810.2069 Z"
     id="path1"
     style="stroke-width:1.17931" />
</svg>

<?xml version="1.0" encoding="UTF-8"?>
<svg fill="currentColor" version="1.1" viewBox="0 -960 960 960" xmlns="http://www.w3.org/2000/svg"><path d="m149.79-291.31h94.345q0-38.917-27.714-66.631-27.714-27.714-66.631-27.714zm167.46 0h68.4q0-97.883-68.99-166.87-68.99-68.99-166.87-68.99v68.4q69.579 0 118.52 48.941 48.941 48.941 48.941 118.52zm141.52 0h68.4q0-77.834-29.483-146.82-29.483-68.99-80.783-120.29t-120.29-80.783q-68.99-29.483-146.82-29.483v68.4q128.54 0 218.76 90.217 90.217 90.217 90.217 218.76zm-167.46 235.86v-94.345h-188.69q-38.917 0-66.631-27.714-27.714-27.714-27.714-66.631v-566.07q0-38.917 27.714-66.631 27.714-27.714 66.631-27.714h754.76q38.917 0 66.631 27.714 27.714 27.714 27.714 66.631v566.07q0 38.917-27.714 66.631-27.714 27.714-66.631 27.714h-188.69v94.345zm-188.69-188.69h754.76v-566.07h-754.76zm0 0v-566.07z" stroke-width="1.1793"/></svg>
